X: 27758
T: Morning Sunday
R: jig
M: 6/8
K: Adorian
|:FAD DEF|GAG GFG|ABA Aef|gec AGE|
FAD DEF|GAG GFG|A2a fge|cBc d3:|
|:afd dfa|bge efg|aba ged|cAA A3|
afd dfa|bge efg|aba ged|cAA ABC|
afd dfa|bge efg|aba g2e|cBc d3|
dfe dAF|GBe efg|aba g2e|cBc d3:|

